public/avatar/body/150.svg

<svg xmlns:xlink="http://www.w3.org/1999/xlink" height="82" width="84.85" xmlns="http://www.w3.org/2000/svg"><use height="40.8" transform="translate(20.7 24.8)" width="42.05" xlink:href="#a"/><defs><use height="40.8" width="42.05" xlink:href="#b" id="a"/><g id="b" fill-rule="evenodd"><path d="M11.15 15.8q3-3.1 4.1-7.15l1-6.2-.65 6.2q-1.15 4.15-4.45 7.15M17 .35l.05-.05.05 2.5L17 .35" fill="#3a1412" transform="translate(21.05 20.6)"/><path d="m8.5-16.05-2.35-.25-1.4.55Q14.4-11.5 13.15-.6 12.7 3.2 9.7 5.65 18.2 1.7 15-7.85l-1.3-2.9 2.45 3.45-.8-.8 1.4 2.15.85.15-.6 1.25 1.25.7.6.55-1.6 1.25.4.75.3.6-.9 1-.05.05-.65.4-.25-.5.15 2.2-1 6.2q-1.1 4.05-4.1 7.15Q5.45 20-1.7 19.55-13 18.5-15.9 8.65l-.75-6.5.05-1.3-1.9-1.35.55-.2.5-1.15-1.55-1.4 1.9-1.3-.65-1.2 8.85-10 .5-.45q3.75-3.2 8.35-3.2 4.45 0 8.55 3.35m-26.25 10.3.9-.2 1.35-2.1-2.25 2.3M-19-3.25l1-.15.9-1.1-1.9 1.25m26.15 20 1.4-.9 1.2-.8q3.35-2.55 4.5-6.4l.8-6.2-.55.8q-3.05 3.9-8 3.7l-.65.7 1.4 1q3.4 3.05 1.3 7.2l-.9.45.1-1q.1-4.4-3.95-6.25l1.25-.1-.4-1.2-1.45.05-.9 1.45-.25-.4-.65-.2H.75l-1 1.4V9.1l-.6-.45-.2-.05.6 1.1-.6-1.05-.1-.05-.2.05-.8.55v-.55l-1.35-1 .55.7-1.7-.5-1 1.35 1.7-.4-2.2 1.5q-1.7 1.3-.85 3.1l.45.9q-.45 2.6 2.6 3 3.95 2.8 11.1-.55m5.6-3.7q-2.35 3.45-6.35 4.4 3.75-.45 5.85-3.6l.5-.8m-23.3-24.35-.9.05q-7.85 6.9-.35 15.05l1 .8q-4.25-5-1.15-11.1 1.25-2.45 1.4-4.8M-14.7 8.65q.4 1.75 1.3 3.35 1.2 2.2 3.2 3.65v-2.6l.6-4.4-5.55-5.05.45 5.05" fill="#8b594d" transform="translate(21.05 20.6)"/><path d="m13.7-10.75 1.3 2.9q3.2 9.55-5.3 13.5 3-2.45 3.45-6.25 1.25-10.9-8.4-15.15l1.4-.55 2.35.25.35.3 4.85 5M7.65 16.3l.9-.45q2.1-4.15-1.3-7.2l-1.4-1 .65-.7q4.95.2 8-3.7l.55-.8-.8 6.2q-1.15 3.85-4.5 6.4l-1.2.8-1.4.9.5-.45m-7.5-.8-1.1-.4.55-.65h.95l-.4 1.05" fill="#6e3d34" transform="translate(21.05 20.6)"/><path d="M7.15 16.75Q0 20.1-3.95 17.3h.35l-2-1.4.05-.1q1.25-2.55.6-5.35-.9 1.4-1.4 2.95l-.2.9-.45-.9q-.85-1.8.85-3.1l2.2-1.5 1.55 2.1.85-.95L-.3 12.2 1 9.65l1.45 1.15L3.8 9.05q4.05 1.85 3.95 6.25l-.1 1-.5.45m-7-1.25.4-1.05H-.4l-.55.65 1.1.4m-10.7-26.8q-.15 2.35-1.4 4.8-3.1 6.1 1.15 11.1l-1-.8q-7.5-8.15.35-15.05l.9-.05m-3.3 3.5-.45 2.55 2.35-4.9q-1.55.75-1.9 2.35m-.85 16.45-.45-5.05 5.55 5.05-.6 4.4v2.6q-2-1.45-3.2-3.65-.9-1.6-1.3-3.35" fill="#bc8a78" transform="translate(21.05 20.6)"/><path d="M-3.95 17.3q-3.05-.4-2.6-3l.2-.9q.5-1.55 1.4-2.95.65 2.8-.6 5.35l-.05.1 2 1.4h-.35m1-8.95-.55-.7 1.35 1v.55l-.8-.85m2.5 1.35-.6-1.1.2.05.6.45v.95l-.2-.35m1.8-1.05h.05l.65.2.25.4-.95-.6m11.4 4.4-.5.8q-2.1 3.15-5.85 3.6 4-.95 6.35-4.4M-13.85-7.8q.35-1.6 1.9-2.35l-2.35 4.9.45-2.55" fill="#f7c5ac" transform="translate(21.05 20.6)"/><path d="m13.7-10.75-4.85-5-.35-.3Q4.4-19.4-.05-19.4q-4.6 0-8.35 3.2l-.5.45-8.85 10 .65 1.2-1.9 1.3 1.55 1.4L-18.5-.5l1.9 1.35-.05 1.3.75 6.5q2.9 9.85 14.2 10.9 7.15.45 12.85-3.75 3.3-3 4.45-7.15l.65-6.2-.15-2.2.25.5.65-.4.1 2.45v1.85l-1 4Q12.65 18.45 1.25 20q-13.6 1.75-18.2-10.9l-.15-.45-.4-2.55-.15-2.6.05-1.85-2.65-2.35 1.5-1.2-2.3-1.25 2.45-1.75-1.05-.75L-18-7.2l7.7-8.55 1-.9q4.5-3.95 9.1-3.95 5.65 0 10.5 4.85l9.3 10.1-.95.75L21-3.15 18.65-1.9l1.5 1.2-2.95 2.55L17.05.3l.9-1 .45.15L17.35-2l.3.7-.4-.75 1.6-1.25-.6-.55-1.25-.7.6-1.25-1.45-1.5-2.45-3.45M-3.95 8.8l-1.7.4 1-1.35 1.7.5.8.85.8-.55.2-.05.1.05.6 1.05.2.35 1-1.4h.6l.95.6.9-1.45 1.45-.05.4 1.2-1.25.1-1.35 1.75L1 9.65-.3 12.2l-1.25-2.25-.85.95-1.55-2.1" fill="#4b271a" transform="translate(21.05 20.6)"/><path d="m-17.75-5.75 2.25-2.3-1.35 2.1-.9.2M-19-3.25l1.9-1.25-.9 1.1-1 .15m1.55 1.4-.5 1.15-.55.2 1.05-1.35M17.95-.7l-.3-.6-.3-.7L18.4-.55l-.45-.15m-.35-5.1-.85-.15-1.4-2.15.8.8 1.45 1.5" fill="#ab8172" transform="translate(21.05 20.6)"/></g></defs></svg>

<?xml version="1.0" encoding="UTF-8" standalone="no"?>
<svg xmlns:xlink="http://www.w3.org/1999/xlink" height="82.0px" width="84.85px" xmlns="http://www.w3.org/2000/svg">
  <g transform="matrix(1.0, 0.0, 0.0, 1.0, 37.4, 42.25)">
    <use height="40.8" transform="matrix(1.0, 0.0, 0.0, 1.0, -16.7, -17.45)" width="42.05" xlink:href="#sprite0"/>
  </g>
  <defs>
    <g id="sprite0" transform="matrix(1.0, 0.0, 0.0, 1.0, 21.05, 20.6)">
      <use height="40.8" transform="matrix(1.0, 0.0, 0.0, 1.0, -21.05, -20.6)" width="42.05" xlink:href="#shape0"/>
    </g>
    <g id="shape0" transform="matrix(1.0, 0.0, 0.0, 1.0, 21.05, 20.6)">
      <path d="M11.15 15.8 Q14.15 12.7 15.25 8.65 L16.25 2.45 15.6 8.65 Q14.45 12.8 11.15 15.8 M17.0 0.35 L17.05 0.3 17.1 2.8 17.0 0.35" fill="#3a1412" fill-rule="evenodd" stroke="none"/>
      <path d="M8.5 -16.05 L6.15 -16.3 4.75 -15.75 Q14.4 -11.5 13.15 -0.6 12.7 3.2 9.7 5.65 18.2 1.7 15.0 -7.85 L13.7 -10.75 16.15 -7.3 15.35 -8.1 16.75 -5.95 17.6 -5.8 17.0 -4.55 18.25 -3.85 18.85 -3.3 17.25 -2.05 17.65 -1.3 17.95 -0.7 17.05 0.3 17.0 0.35 16.35 0.75 16.1 0.25 16.25 2.45 15.25 8.65 Q14.15 12.7 11.15 15.8 5.45 20.0 -1.7 19.55 -13.0 18.5 -15.9 8.65 L-16.65 2.15 -16.6 0.85 -18.5 -0.5 -17.95 -0.7 -17.45 -1.85 -19.0 -3.25 -17.1 -4.55 -17.75 -5.75 -8.9 -15.75 -8.4 -16.2 Q-4.65 -19.4 -0.05 -19.4 4.4 -19.4 8.5 -16.05 M-17.75 -5.75 L-16.85 -5.95 -15.5 -8.05 -17.75 -5.75 M-19.0 -3.25 L-18.0 -3.4 -17.1 -4.5 -19.0 -3.25 M7.15 16.75 L8.55 15.85 9.75 15.05 Q13.1 12.5 14.25 8.65 L15.05 2.45 14.5 3.25 Q11.45 7.15 6.5 6.95 L5.85 7.65 7.25 8.65 Q10.65 11.7 8.55 15.85 L7.65 16.3 7.75 15.3 Q7.85 10.9 3.8 9.05 L5.05 8.95 4.65 7.75 3.2 7.8 2.3 9.25 2.05 8.85 1.4 8.65 1.35 8.65 0.75 8.65 -0.25 10.05 -0.25 9.1 -0.85 8.65 -1.05 8.6 -0.45 9.7 -1.05 8.65 -1.15 8.6 -1.35 8.65 -2.15 9.2 -2.15 8.65 -3.5 7.65 -2.95 8.35 -4.65 7.85 -5.65 9.2 -3.95 8.8 -6.15 10.3 Q-7.85 11.6 -7.0 13.4 L-6.55 14.3 Q-7.0 16.9 -3.95 17.3 0.0 20.1 7.15 16.75 M12.75 13.05 Q10.4 16.5 6.4 17.45 10.15 17.0 12.25 13.85 L12.75 13.05 M-10.55 -11.3 L-11.45 -11.25 Q-19.3 -4.35 -11.8 3.8 L-10.8 4.6 Q-15.05 -0.4 -11.95 -6.5 -10.7 -8.95 -10.55 -11.3 M-14.7 8.65 Q-14.3 10.4 -13.4 12.0 -12.2 14.2 -10.2 15.65 L-10.2 13.05 -9.6 8.65 -15.15 3.6 -14.7 8.65" fill="#8b594d" fill-rule="evenodd" stroke="none"/>
      <path d="M13.7 -10.75 L15.0 -7.85 Q18.2 1.7 9.7 5.65 12.7 3.2 13.15 -0.6 14.4 -11.5 4.75 -15.75 L6.15 -16.3 8.5 -16.05 8.85 -15.75 13.7 -10.75 M7.65 16.3 L8.55 15.85 Q10.65 11.7 7.25 8.65 L5.85 7.65 6.5 6.95 Q11.45 7.15 14.5 3.25 L15.05 2.45 14.25 8.65 Q13.1 12.5 9.75 15.05 L8.55 15.85 7.15 16.75 7.65 16.3 M0.15 15.5 L-0.95 15.1 -0.4 14.45 0.55 14.45 0.15 15.5" fill="#6e3d34" fill-rule="evenodd" stroke="none"/>
      <path d="M7.15 16.75 Q0.0 20.1 -3.95 17.3 L-3.6 17.3 -5.6 15.9 -5.55 15.8 Q-4.3 13.25 -4.95 10.45 -5.85 11.85 -6.35 13.4 L-6.55 14.3 -7.0 13.4 Q-7.85 11.6 -6.15 10.3 L-3.95 8.8 -2.4 10.9 -1.55 9.95 -0.3 12.2 1.0 9.65 2.45 10.8 3.8 9.05 Q7.85 10.9 7.75 15.3 L7.65 16.3 7.15 16.75 M0.15 15.5 L0.55 14.45 -0.4 14.45 -0.95 15.1 0.15 15.5 M-10.55 -11.3 Q-10.7 -8.95 -11.95 -6.5 -15.05 -0.4 -10.8 4.6 L-11.8 3.8 Q-19.3 -4.35 -11.45 -11.25 L-10.55 -11.3 M-13.85 -7.8 L-14.3 -5.25 -11.95 -10.15 Q-13.5 -9.4 -13.85 -7.8 M-14.7 8.65 L-15.15 3.6 -9.6 8.65 -10.2 13.05 -10.2 15.65 Q-12.2 14.2 -13.4 12.0 -14.3 10.4 -14.7 8.65" fill="#bc8a78" fill-rule="evenodd" stroke="none"/>
      <path d="M-3.95 17.3 Q-7.0 16.9 -6.55 14.3 L-6.35 13.4 Q-5.85 11.85 -4.95 10.45 -4.3 13.25 -5.55 15.8 L-5.6 15.9 -3.6 17.3 -3.95 17.3 M-2.95 8.35 L-3.5 7.65 -2.15 8.65 -2.15 9.2 -2.95 8.35 M-0.45 9.7 L-1.05 8.6 -0.85 8.65 -0.25 9.1 -0.25 10.05 -0.45 9.7 M1.35 8.65 L1.4 8.65 2.05 8.85 2.3 9.25 1.35 8.65 M12.75 13.05 L12.25 13.85 Q10.15 17.0 6.4 17.45 10.4 16.5 12.75 13.05 M-13.85 -7.8 Q-13.5 -9.4 -11.95 -10.15 L-14.3 -5.25 -13.85 -7.8" fill="#f7c5ac" fill-rule="evenodd" stroke="none"/>
      <path d="M13.7 -10.75 L8.85 -15.75 8.5 -16.05 Q4.4 -19.4 -0.05 -19.4 -4.65 -19.4 -8.4 -16.2 L-8.9 -15.75 -17.75 -5.75 -17.1 -4.55 -19.0 -3.25 -17.45 -1.85 -18.5 -0.5 -16.6 0.85 -16.65 2.15 -15.9 8.65 Q-13.0 18.5 -1.7 19.55 5.45 20.0 11.15 15.8 14.45 12.8 15.6 8.65 L16.25 2.45 16.1 0.25 16.35 0.75 17.0 0.35 17.1 2.8 17.1 3.6 17.1 4.65 16.1 8.65 Q12.65 18.45 1.25 20.0 -12.35 21.75 -16.95 9.1 L-17.1 8.65 -17.5 6.1 -17.65 3.5 -17.6 1.65 -20.25 -0.7 -18.75 -1.9 -21.05 -3.15 -18.6 -4.9 -19.65 -5.65 -18.0 -7.2 -10.3 -15.75 -9.3 -16.65 Q-4.8 -20.6 -0.2 -20.6 5.45 -20.6 10.3 -15.75 L19.6 -5.65 18.65 -4.9 21.0 -3.15 18.65 -1.9 20.15 -0.7 17.2 1.85 17.05 0.3 17.95 -0.7 18.4 -0.55 17.35 -2.0 17.65 -1.3 17.25 -2.05 18.85 -3.3 18.25 -3.85 17.0 -4.55 17.6 -5.8 16.15 -7.3 13.7 -10.75 M-3.95 8.8 L-5.65 9.2 -4.65 7.85 -2.95 8.35 -2.15 9.2 -1.35 8.65 -1.15 8.6 -1.05 8.65 -0.45 9.7 -0.25 10.05 0.75 8.65 1.35 8.65 2.3 9.25 3.2 7.8 4.65 7.75 5.05 8.95 3.8 9.05 2.45 10.8 1.0 9.65 -0.3 12.2 -1.55 9.95 -2.4 10.9 -3.95 8.8" fill="#4b271a" fill-rule="evenodd" stroke="none"/>
      <path d="M-17.75 -5.75 L-15.5 -8.05 -16.85 -5.95 -17.75 -5.75 M-19.0 -3.25 L-17.1 -4.5 -18.0 -3.4 -19.0 -3.25 M-17.45 -1.85 L-17.95 -0.7 -18.5 -0.5 -17.45 -1.85 M17.95 -0.7 L17.65 -1.3 17.35 -2.0 18.4 -0.55 17.95 -0.7 M17.6 -5.8 L16.75 -5.95 15.35 -8.1 16.15 -7.3 17.6 -5.8" fill="#ab8172" fill-rule="evenodd" stroke="none"/>
    </g>
  </defs>
</svg>
